gtk-icons/Papirus-GTK/32x32/apps/preferences-desktop-notification-bell.svg

<?xml version="1.0" encoding="UTF-8" standalone="no"?>
<svg
   xmlns:dc="http://purl.org/dc/elements/1.1/"
   xmlns:cc="http://creativecommons.org/ns#"
   xmlns:rdf="http://www.w3.org/1999/02/22-rdf-syntax-ns#"
   xmlns:svg="http://www.w3.org/2000/svg"
   xmlns="http://www.w3.org/2000/svg"
   xmlns:sodipodi="http://sodipodi.sourceforge.net/DTD/sodipodi-0.dtd"
   xmlns:inkscape="http://www.inkscape.org/namespaces/inkscape"
   width="32"
   viewBox="0 0 32 32"
   height="32"
   id="svg3067"
   version="1.1"
   inkscape:version="0.91 r"
   sodipodi:docname="preferences-desktop-notification-bell.svg">
  <metadata
     id="metadata3077">
    <rdf:RDF>
      <cc:Work
         rdf:about="">
        <dc:format>image/svg+xml</dc:format>
        <dc:type
           rdf:resource="http://purl.org/dc/dcmitype/StillImage" />
        <dc:title></dc:title>
      </cc:Work>
    </rdf:RDF>
  </metadata>
  <defs
     id="defs3075" />
  <sodipodi:namedview
     pagecolor="#ffffff"
     bordercolor="#666666"
     borderopacity="1"
     objecttolerance="10"
     gridtolerance="10"
     guidetolerance="10"
     inkscape:pageopacity="0"
     inkscape:pageshadow="2"
     inkscape:window-width="1547"
     inkscape:window-height="876"
     id="namedview3073"
     showgrid="false"
     inkscape:zoom="11.42"
     inkscape:cx="27.815888"
     inkscape:cy="20.314733"
     inkscape:window-x="53"
     inkscape:window-y="24"
     inkscape:window-maximized="1"
     inkscape:current-layer="svg3067">
    <inkscape:grid
       type="xygrid"
       id="grid4140" />
  </sodipodi:namedview>
  <path
     style="fill:#efb055;fill-opacity:1"
     d="M 5.3704484,16.242425 C 5.3704484,21.866375 -1.7159192,26 4.6618115,26 L 27.338188,26 C 33.71592,26 26.629552,21.866375 26.629552,16.242425 26.629552,9.969697 23.795004,3 16,3 8.204996,3 5.3704484,9.969697 5.3704484,16.242425 Z"
     id="path4137"
     inkscape:connector-curvature="0"
     sodipodi:nodetypes="sccszs" />
  <path
     style="fill:#ce903c;fill-opacity:1"
     d="m 11,26 c 0.738685,1.737522 2.686541,3 5,3 2.31346,0 4.261315,-1.262478 5,-3 l -10,0 z"
     id="path4135"
     inkscape:connector-curvature="0" />
  <path
     style="fill:#ffffff;fill-opacity:1;opacity:0.1"
     d="M 16 3 C 8.204996 3 5.3710938 9.9694595 5.3710938 16.242188 C 5.3710938 20.513064 1.2885506 23.922114 2.1152344 25.316406 C 2.6902161 23.600826 5.3710938 20.705954 5.3710938 17.242188 C 5.3710938 10.969459 8.204996 4 16 4 C 23.795004 4 26.628906 10.969459 26.628906 17.242188 C 26.628906 20.705954 29.309784 23.600826 29.884766 25.316406 C 30.71145 23.922114 26.628906 20.513064 26.628906 16.242188 C 26.628906 9.9694595 23.795004 3 16 3 z "
     id="path4188" />
  <path
     style="fill:#000000;fill-opacity:1;opacity:0.3"
     d="M 2.1152344 24.316406 C 1.7566461 25.386331 2.2123953 26 4.6621094 26 L 27.337891 26 C 29.787605 26 30.243354 25.386331 29.884766 24.316406 C 29.622861 24.758137 28.872317 25 27.337891 25 L 4.6621094 25 C 3.1276832 25 2.3771393 24.758137 2.1152344 24.316406 z "
     id="path4193" />
  <path
     style="fill:#000000;fill-opacity:1;opacity:0.3"
     d="M 11 26 C 11.738685 27.737522 13.686541 29 16 29 C 18.31346 29 20.261315 27.737522 21 26 L 20.384766 26 C 19.431016 27.197073 17.836348 28 16 28 C 14.163653 28 12.568984 27.197073 11.615234 26 L 11 26 z "
     id="path4198" />
</svg>

<?xml version="1.0" encoding="UTF-8" standalone="no"?>
<svg id="svg3067" xmlns:rdf="http://www.w3.org/1999/02/22-rdf-syntax-ns#" xmlns="http://www.w3.org/2000/svg" height="32" width="32" version="1.1" xmlns:cc="http://creativecommons.org/ns#" xmlns:dc="http://purl.org/dc/elements/1.1/" viewBox="0 0 32 32">
 <metadata id="metadata3077">
  <rdf:RDF>
   <cc:Work rdf:about="">
    <dc:format>image/svg+xml</dc:format>
    <dc:type rdf:resource="http://purl.org/dc/dcmitype/StillImage"/>
    <dc:title/>
   </cc:Work>
  </rdf:RDF>
 </metadata>
 <path id="path4137" d="m5.3704 16.242c0 5.624-7.0863 9.758-0.7086 9.758h22.676c6.378 0-0.708-4.134-0.708-9.758 0-6.2723-2.835-13.242-10.63-13.242s-10.63 6.9697-10.63 13.242z" fill="#efb055"/>
 <path id="path4135" fill="#ce903c" d="m11 26c0.73868 1.7375 2.6865 3 5 3s4.2613-1.2625 5-3h-10z"/>
 <path id="path4188" opacity=".1" d="m16 3c-7.795 0-10.629 6.9695-10.629 13.242 0.0001 4.271-4.0824 7.68-3.2558 9.074 0.575-1.715 3.2559-4.61 3.2559-8.074 0-6.273 2.8339-13.242 10.629-13.242 7.795 0 10.629 6.969 10.629 13.242 0 3.464 2.681 6.359 3.256 8.074 0.826-1.394-3.256-4.803-3.256-9.074 0-6.2725-2.834-13.242-10.629-13.242z" fill="#fff"/>
 <path id="path4193" opacity=".3" d="m2.1152 24.316c-0.3586 1.07 0.0972 1.684 2.5469 1.684h22.676c2.45 0 2.905-0.614 2.547-1.684-0.262 0.442-1.013 0.684-2.547 0.684h-22.676c-1.5343 0-2.2849-0.242-2.5468-0.684z"/>
 <path id="path4198" opacity=".3" d="m11 26c0.739 1.738 2.687 3 5 3s4.261-1.262 5-3h-0.615c-0.954 1.197-2.549 2-4.385 2s-3.431-0.803-4.385-2h-0.615z"/>
</svg>
